src/assets/images/footer/Mastercard-logo.svg

<svg width="33" height="26" viewBox="0 0 33 26" fill="none" xmlns="http://www.w3.org/2000/svg">
<path d="M4.38875 25.9563V24.6324C4.38875 24.126 4.07143 23.7943 3.5267 23.7943C3.25433 23.7943 2.95817 23.8817 2.75456 24.1697C2.5959 23.928 2.36848 23.7943 2.02737 23.7943C1.79995 23.7943 1.57254 23.8612 1.39273 24.1028V23.838H0.916748V25.9563H1.39273V24.7866C1.39273 24.4113 1.59634 24.2339 1.91366 24.2339C2.23098 24.2339 2.38964 24.4319 2.38964 24.7866V25.9563H2.86562V24.7866C2.86562 24.4113 3.09303 24.2339 3.38655 24.2339C3.70387 24.2339 3.86253 24.4319 3.86253 24.7866V25.9563H4.38875ZM11.4491 23.838H10.677V23.1979H10.201V23.838H9.76996V24.2571H10.201V25.2288C10.201 25.7147 10.4046 26 10.9493 26C11.1529 26 11.3804 25.9332 11.539 25.8458L11.4015 25.4473C11.264 25.5347 11.1053 25.5578 10.9916 25.5578C10.7642 25.5578 10.6743 25.4242 10.6743 25.2057V24.2571H11.4465V23.838H11.4491ZM15.4896 23.7918C15.2173 23.7918 15.0348 23.9254 14.9211 24.1003V23.8355H14.4451V25.9537H14.9211V24.7609C14.9211 24.4087 15.0798 24.2082 15.3759 24.2082C15.4658 24.2082 15.5795 24.2314 15.6721 24.2519L15.8096 23.8098C15.7144 23.7918 15.5796 23.7918 15.4896 23.7918ZM9.38389 24.0129C9.15648 23.8586 8.83916 23.7918 8.49804 23.7918C7.95331 23.7918 7.59103 24.0566 7.59103 24.4756C7.59103 24.8278 7.8634 25.0283 8.33938 25.0925L8.56679 25.1157C8.81536 25.1594 8.95286 25.2262 8.95286 25.3368C8.95286 25.491 8.7704 25.6015 8.45308 25.6015C8.13577 25.6015 7.88455 25.491 7.72589 25.3805L7.49848 25.7326C7.74705 25.91 8.08817 25.9974 8.42929 25.9974C9.06392 25.9974 9.42884 25.7095 9.42884 25.3136C9.42884 24.9383 9.13268 24.7404 8.6805 24.6735L8.45308 24.6504C8.24947 24.6272 8.09081 24.5835 8.09081 24.4524C8.09081 24.2982 8.24947 24.2108 8.50068 24.2108C8.77305 24.2108 9.04541 24.3213 9.18292 24.3882L9.38389 24.0129ZM22.0476 23.7918C21.7752 23.7918 21.5928 23.9254 21.479 24.1003V23.8355H21.0031V25.9537H21.479V24.7609C21.479 24.4087 21.6377 24.2082 21.9339 24.2082C22.0238 24.2082 22.1375 24.2314 22.23 24.2519L22.3675 23.8149C22.275 23.7918 22.1401 23.7918 22.0476 23.7918ZM15.9656 24.8972C15.9656 25.5373 16.4204 26 17.1238 26C17.4412 26 17.6686 25.9332 17.896 25.7584L17.6686 25.383C17.4861 25.5167 17.3063 25.581 17.1 25.581C16.714 25.581 16.4416 25.3162 16.4416 24.8972C16.4416 24.4987 16.714 24.2339 17.1 24.2134C17.3037 24.2134 17.4861 24.2802 17.6686 24.4113L17.896 24.036C17.6686 23.8586 17.4412 23.7943 17.1238 23.7943C16.4204 23.7918 15.9656 24.2571 15.9656 24.8972ZM20.3684 24.8972V23.838H19.8925V24.1028C19.7338 23.9049 19.5064 23.7943 19.2102 23.7943C18.5967 23.7943 18.1208 24.2571 18.1208 24.8972C18.1208 25.5373 18.5967 26 19.2102 26C19.5275 26 19.7549 25.8895 19.8925 25.6915V25.9563H20.3684V24.8972ZM18.6205 24.8972C18.6205 24.5219 18.8691 24.2134 19.279 24.2134C19.665 24.2134 19.9374 24.5013 19.9374 24.8972C19.9374 25.2725 19.665 25.581 19.279 25.581C18.8717 25.5578 18.6205 25.2699 18.6205 24.8972ZM12.9246 23.7918C12.29 23.7918 11.8352 24.2339 11.8352 24.8946C11.8352 25.5578 12.29 25.9974 12.9484 25.9974C13.2658 25.9974 13.5831 25.91 13.8343 25.7095L13.6069 25.3779C13.4244 25.5116 13.197 25.599 12.9722 25.599C12.6761 25.599 12.3826 25.4653 12.3138 25.0925H13.9242C13.9242 25.0257 13.9242 24.982 13.9242 24.9152C13.9454 24.2339 13.5355 23.7918 12.9246 23.7918ZM12.9246 24.1902C13.2208 24.1902 13.4244 24.3676 13.4694 24.6967H12.335C12.3799 24.4113 12.5835 24.1902 12.9246 24.1902ZM24.7501 24.8972V23H24.2741V24.1028C24.1154 23.9049 23.888 23.7943 23.5919 23.7943C22.9784 23.7943 22.5024 24.2571 22.5024 24.8972C22.5024 25.5373 22.9784 26 23.5919 26C23.9092 26 24.1366 25.8895 24.2741 25.6915V25.9563H24.7501V24.8972ZM23.0022 24.8972C23.0022 24.5219 23.2507 24.2134 23.6606 24.2134C24.0467 24.2134 24.3191 24.5013 24.3191 24.8972C24.3191 25.2725 24.0467 25.581 23.6606 25.581C23.2507 25.5578 23.0022 25.2699 23.0022 24.8972ZM7.06746 24.8972V23.838H6.59148V24.1028C6.43282 23.9049 6.20541 23.7943 5.90924 23.7943C5.29576 23.7943 4.81978 24.2571 4.81978 24.8972C4.81978 25.5373 5.29576 26 5.90924 26C6.22656 26 6.45397 25.8895 6.59148 25.6915V25.9563H7.06746V24.8972ZM5.2984 24.8972C5.2984 24.5219 5.54697 24.2134 5.95684 24.2134C6.34291 24.2134 6.61528 24.5013 6.61528 24.8972C6.61528 25.2725 6.34291 25.581 5.95684 25.581C5.54697 25.5578 5.2984 25.2699 5.2984 24.8972Z" fill="#E5E5E5"/>
<path d="M16.2959 7.70361H9.3501V20.2242H16.2959V7.70361Z" fill="#FF5A00"/>
<path d="M9.81252 13.9639C9.81252 11.4201 11.0044 9.16237 12.8333 7.70361C11.4873 6.64175 9.7894 6 7.93735 6C3.54997 6 0 9.56186 0 13.9639C0 18.366 3.54997 21.9278 7.93735 21.9278C9.7894 21.9278 11.4873 21.2861 12.8333 20.2242C11.0018 18.7861 9.81252 16.5077 9.81252 13.9639Z" fill="#EB001B"/>
<path d="M25.6666 13.9639C25.6666 18.366 22.1166 21.9278 17.7292 21.9278C15.8772 21.9278 14.1793 21.2861 12.8333 20.2242C14.6853 18.7629 15.8541 16.5077 15.8541 13.9639C15.8541 11.4201 14.6622 9.16237 12.8333 7.70361C14.1767 6.64175 15.8746 6 17.7267 6C22.1166 6 25.6666 9.58505 25.6666 13.9639Z" fill="#F79E1B"/>
</svg>

<svg width="33" height="26" fill="none" xmlns="http://www.w3.org/2000/svg"><path d="M4.389 25.956v-1.324c0-.506-.318-.838-.862-.838-.273 0-.569.088-.772.376-.16-.242-.387-.376-.728-.376a.739.739 0 0 0-.634.309v-.265H.917v2.118h.476v-1.17c0-.375.203-.552.52-.552.318 0 .477.198.477.553v1.17h.476v-1.17c0-.376.227-.553.52-.553.318 0 .477.198.477.553v1.17h.526Zm7.06-2.118h-.772v-.64h-.476v.64H9.77v.42h.431v.97c0 .487.204.772.748.772.204 0 .431-.067.59-.154l-.137-.399a.778.778 0 0 1-.41.11c-.228 0-.318-.133-.318-.351v-.949h.773v-.419h.002Zm4.04-.046a.649.649 0 0 0-.568.308v-.265h-.476v2.119h.476V24.76c0-.352.159-.553.455-.553.09 0 .204.023.296.044l.138-.442c-.096-.018-.23-.018-.32-.018Zm-6.105.22c-.228-.153-.545-.22-.886-.22-.545 0-.907.265-.907.684 0 .352.272.552.748.617l.228.023c.248.043.386.11.386.22 0 .155-.183.266-.5.266a1.28 1.28 0 0 1-.727-.221l-.228.352c.249.177.59.264.931.264.635 0 1-.288 1-.683 0-.376-.296-.574-.748-.64l-.228-.024c-.204-.023-.362-.066-.362-.198 0-.154.158-.241.41-.241.272 0 .544.11.682.177l.2-.375Zm12.664-.22a.649.649 0 0 0-.569.308v-.265h-.476v2.119h.476V24.76c0-.352.159-.553.455-.553.09 0 .203.023.296.044l.137-.437c-.092-.023-.227-.023-.32-.023Zm-6.082 1.105c0 .64.454 1.103 1.158 1.103.317 0 .545-.067.772-.242l-.227-.375a.926.926 0 0 1-.569.198c-.386 0-.658-.265-.658-.684 0-.398.272-.663.658-.684.204 0 .386.067.569.198l.227-.375c-.227-.177-.455-.242-.772-.242-.704-.002-1.158.463-1.158 1.103Zm4.402 0v-1.059h-.476v.265c-.158-.198-.386-.309-.682-.309-.613 0-1.09.463-1.09 1.103 0 .64.477 1.103 1.09 1.103.317 0 .545-.11.682-.308v.264h.476v-1.059Zm-1.747 0c0-.375.248-.684.658-.684.386 0 .658.288.658.684 0 .376-.272.684-.658.684-.407-.023-.659-.311-.659-.684Zm-5.696-1.105c-.635 0-1.09.442-1.09 1.103 0 .663.455 1.102 1.113 1.102.318 0 .635-.087.886-.288l-.227-.331a1.1 1.1 0 0 1-.635.221c-.296 0-.59-.134-.658-.506h1.61v-.178c.021-.681-.388-1.123-1-1.123Zm0 .398c.296 0 .5.178.544.507h-1.134c.045-.286.248-.507.59-.507Zm11.825.707V23h-.476v1.103c-.159-.198-.386-.309-.682-.309-.614 0-1.09.463-1.09 1.103 0 .64.476 1.103 1.09 1.103.317 0 .545-.11.682-.308v.264h.476v-1.059Zm-1.748 0c0-.375.249-.684.659-.684.386 0 .658.288.658.684 0 .376-.272.684-.658.684-.41-.023-.659-.311-.659-.684Zm-15.935 0v-1.059h-.476v.265c-.158-.198-.386-.309-.682-.309-.613 0-1.09.463-1.09 1.103 0 .64.477 1.103 1.09 1.103.318 0 .545-.11.682-.308v.264h.476v-1.059Zm-1.769 0c0-.375.249-.684.659-.684.386 0 .658.288.658.684 0 .376-.272.684-.658.684-.41-.023-.659-.311-.659-.684Z" fill="#E5E5E5"/><path d="M16.296 7.704H9.35v12.52h6.946V7.704Z" fill="#FF5A00"/><path d="M9.813 13.964a7.996 7.996 0 0 1 3.02-6.26A7.878 7.878 0 0 0 7.937 6C3.55 6 0 9.562 0 13.964c0 4.402 3.55 7.964 7.937 7.964 1.852 0 3.55-.642 4.896-1.704a7.957 7.957 0 0 1-3.02-6.26Z" fill="#EB001B"/><path d="M25.667 13.964c0 4.402-3.55 7.964-7.938 7.964a7.878 7.878 0 0 1-4.896-1.704 7.93 7.93 0 0 0 3.021-6.26 7.996 7.996 0 0 0-3.02-6.26A7.865 7.865 0 0 1 17.726 6c4.39 0 7.94 3.585 7.94 7.964Z" fill="#F79E1B"/></svg>
